X:1
T:Title
%%score ( 1 2 3 ) { 4 | ( 5 6 ) }
L:1/8
Q:1/4=108
M:4/4
K:C
V:1 treble nm="Grand Piano, Soprano"
V:2 treble 
V:3 treble 
V:4 treble nm="Choir Pad, Buckhurst Hill, 87.87"
V:5 bass 
V:6 bass 
V:1
 [Gc]2 [GB]2 [^FA]2 [DG]2 | G2 z2 z4 | z2 c2 z4 | Bc A2- [^FA]2 G2 | [Gc]2 [FB]2 [Gc]2 [Gd]2 | %5
w: By~German~chorale,~harm.~by~J.~S.~Bach * * *|||||
 [Gd]2 [Ge]2 dc [Gd]2 | G2 [DA]2 [DB]2 cd | e[Af] d2- d-[Fd] [Ec]2- | [Ec]6 z2 |] %9
w: ||||
V:2
 x8 | ED [CA]2 [EB]2 [Ec]2 | d2 z ^F [GB]2 [FA]2 | G2 G2 z4 | x8 | z4 ^F2 z2 | z4 z2 C2- | %7
 C z G4 z2 | x8 |] %9
V:3
 x8 | x8 | G4 z4 | x8 | x8 | x8 | x8 | x8 | x8 |] %9
V:4
 E2 .D4 B,2 | C_B,[K:bass]A,G, F,2 G,2 | B,2[K:treble] C2 D2 D2 | D2 E2 DC B,2 | %4
 C2 D2 E2[K:bass] B,2 | B,2 CB, C2 B,2 | C2 C2 F2 EF | ^G[K:bass]C C2 B,2 G,2- | G,6 z2 |] %9
V:5
 C,2 G,2 z C G,,2 | C,2 F,E, D,2 C,2 | G,,2 A,,2 B,,C, D,2 | G,2 C,2 D,2 G,,2 | E,2 D,2 C,2 G,2 | %5
 G,2 z2 A,2 G,2 | E,2 F,2 ^G,2 A,2 | G,F, G,2 G,,2 C,2- | C,6 z2 |] %9
V:6
 z4 D,2 z2 | x8 | x8 | x8 | x8 | x8 | x8 | x8 | x8 |] %9

